icons/code-box.svg

<svg width="24" height="24" viewBox="0 0 24 24" fill="none" xmlns="http://www.w3.org/2000/svg">
<path fill-rule="evenodd" clip-rule="evenodd" d="M6.04785 6.95013C6.04785 5.10157 7.47216 3.6001 9.09784 3.6001H14.8979C16.5349 3.6001 17.9478 5.01387 17.9478 6.95013V17.0664L17.9486 17.0827C18.0309 18.9755 16.6517 20.4001 14.8979 20.4001H9.09784C7.46079 20.4001 6.04785 18.9864 6.04785 17.0501V6.95013ZM9.09784 2.1001C6.52352 2.1001 4.54785 4.3987 4.54785 6.95013V17.0501C4.54785 19.7139 6.53489 21.9001 9.09784 21.9001H14.8979C17.5385 21.9001 19.5564 19.7338 19.4478 17.0344V6.95013C19.4478 4.28639 17.4608 2.1001 14.8979 2.1001H9.09784ZM8.94788 7.75012C8.94788 7.06434 9.51209 6.50012 10.1979 6.50012H13.8979C14.5837 6.50012 15.1479 7.06434 15.1479 7.75012V10.4501C15.1479 11.1359 14.5837 11.7001 13.8979 11.7001H10.1979C9.51209 11.7001 8.94788 11.1359 8.94788 10.4501V7.75012ZM10.1979 5.00012C8.68366 5.00012 7.44788 6.23591 7.44788 7.75012V10.4501C7.44788 11.9643 8.68366 13.2001 10.1979 13.2001H13.8979C15.4121 13.2001 16.6479 11.9643 16.6479 10.4501V7.75012C16.6479 6.23591 15.4121 5.00012 13.8979 5.00012H10.1979ZM11.4281 14.9198C11.721 15.2127 11.721 15.6876 11.4281 15.9805L10.6085 16.8001L11.4281 17.6198C11.721 17.9127 11.721 18.3876 11.4281 18.6805C11.1352 18.9734 10.6604 18.9734 10.3675 18.6805L9.36747 17.6805C8.87458 17.1876 8.87458 16.4127 9.36747 15.9198L10.3675 14.9198C10.6604 14.6269 11.1352 14.6269 11.4281 14.9198ZM14.1281 14.8198C13.8352 14.5269 13.3603 14.5269 13.0674 14.8198C12.7746 15.1127 12.7746 15.5875 13.0674 15.8804L13.8871 16.7001L13.0674 17.5198C12.7746 17.8127 12.7746 18.2875 13.0674 18.5804C13.3603 18.8733 13.8352 18.8733 14.1281 18.5804L15.1281 17.5804C15.621 17.0875 15.621 16.3127 15.1281 15.8198L14.1281 14.8198Z" fill="black"/>
</svg>

<svg xmlns="http://www.w3.org/2000/svg" fill="none" viewBox="0 0 24 24">
  <path fill="#000" fill-rule="evenodd" d="M6.048 6.95c0-1.848 1.424-3.35 3.05-3.35h5.8c1.637 0 3.05 1.414 3.05 3.35v10.133c.083 1.893-1.296 3.317-3.05 3.317h-5.8c-1.637 0-3.05-1.414-3.05-3.35V6.95Zm3.05-4.85c-2.574 0-4.55 2.299-4.55 4.85v10.1c0 2.664 1.987 4.85 4.55 4.85h5.8c2.64 0 4.658-2.166 4.55-4.866V6.95c0-2.664-1.987-4.85-4.55-4.85h-5.8Zm-.15 5.65c0-.686.564-1.25 1.25-1.25h3.7c.686 0 1.25.564 1.25 1.25v2.7c0 .686-.564 1.25-1.25 1.25h-3.7c-.686 0-1.25-.564-1.25-1.25v-2.7ZM10.198 5a2.756 2.756 0 0 0-2.75 2.75v2.7a2.756 2.756 0 0 0 2.75 2.75h3.7a2.756 2.756 0 0 0 2.75-2.75v-2.7A2.756 2.756 0 0 0 13.898 5h-3.7Zm1.23 9.92a.75.75 0 0 1 0 1.06l-.82.82.82.82a.75.75 0 0 1-1.06 1.06l-1-1a1.233 1.233 0 0 1 0-1.76l1-1a.75.75 0 0 1 1.06 0Zm2.7-.1a.75.75 0 0 0-1.06 1.06l.82.82-.82.82a.75.75 0 0 0 1.06 1.06l1-1a1.233 1.233 0 0 0 0-1.76l-1-1Z" clip-rule="evenodd"/>
</svg>
